X: 20
T: Castle, The
C: Sean Ryan
Z: Fernando Durbán Galnares
S: https://thesession.org/tunes/273#setting46024
R: jig
M: 6/8
L: 1/8
K: Ador
|:b|"Am"c'ba "G"bag|"Am"age "G"dBG|"Am"A2A edB|"G"deg agb|
"Am"c'ba "G"bag|"C"age "G"dBG|"Am"A2A "G"edB|"Em"dBG "Am"A2:|
|:B|"Am"cBA a2a|"Am"bag edB|"G"GBd g2g|"G"GBd cAB|
"Am"cBc "G"dcd|"F"ede "G"gab|"Am"age "G"dBG|"Em"EFG "Am"A2:|

